icons/breeze-filled.svg

<svg width="256" height="256" viewBox="0 0 256 256" fill="none" xmlns="http://www.w3.org/2000/svg">
<rect width="256" height="256" rx="60" fill="#4AB2B0" />
<path d="M196 0H60C26.8629 0 0 26.8629 0 60V196C0 229.137 26.8629 256 60 256H196C229.137 256 256 229.137 256 196V60C256 26.8629 229.137 0 196 0Z" fill="#F3C14B"/>
<circle cx="128" cy="128" r="92" fill="white"/>
<circle cx="128.5" cy="127.5" r="84.5" fill="#F3C14B"/>
<path d="M180.846 74.9231L127.769 127.769V90.6154L143.231 75.1539H180.846V74.9231ZM127.769 127.769L180.846 180.846V143.462L165.154 127.769H127.769ZM112.308 180.846L127.769 165.385V127.769L74.9231 180.846H112.308ZM74.9231 112.308L90.3846 127.769H127.769L74.9231 74.9231V112.308Z" fill="white"/>
</svg>

<svg xmlns="http://www.w3.org/2000/svg" width="256" height="256" fill="none"><rect width="256" height="256" fill="#4AB2B0" rx="60"/><path fill="#F3C14B" d="M196 0H60C26.863 0 0 26.863 0 60v136c0 33.137 26.863 60 60 60h136c33.137 0 60-26.863 60-60V60c0-33.137-26.863-60-60-60"/><circle cx="128" cy="128" r="92" fill="#fff"/><circle cx="128.5" cy="127.5" r="84.5" fill="#F3C14B"/><path fill="#fff" d="m180.846 74.923-53.077 52.846V90.615l15.462-15.461h37.615zm-53.077 52.846 53.077 53.077v-37.384l-15.692-15.693zm-15.461 53.077 15.461-15.461v-37.616l-52.846 53.077zm-37.385-68.538 15.462 15.461h37.384L74.923 74.923z"/></svg>
